lib/preview_tmp/nrk-logo-preview-nrk-1-with-bg.svg

<svg width="64" height="28" viewBox="0 0 64 28" fill="none" xmlns="http://www.w3.org/2000/svg">
<rect width="64" height="28" fill="#0A2343"/>
<path d="M6.66663 21V7.00125H11.26V21H6.66663ZM17.5094 9.22922L20.151 21H15.124L11.9697 7.00125H14.7892C15.4357 6.99286 16.063 7.22077 16.5535 7.6421C17.0449 8.04576 17.3824 8.60613 17.5094 9.22922ZM20.8411 21V7.00125H25.4345V21H20.8411ZM28.9038 12.3248C28.4089 12.3296 27.9218 12.2001 27.4946 11.9501C27.073 11.7065 26.7229 11.3563 26.4793 10.9347C26.229 10.5074 26.0995 10.0202 26.1044 9.52502C26.0988 9.03285 26.2284 8.54859 26.4793 8.12515C26.7255 7.70814 27.0752 7.36176 27.4946 7.11959C27.922 6.8699 28.4089 6.74041 28.9038 6.74493C29.3959 6.73963 29.8799 6.86923 30.3035 7.11959C30.7187 7.36388 31.0647 7.70997 31.309 8.12515C31.5596 8.54871 31.6892 9.03289 31.6838 9.52502C31.6884 10.0202 31.5589 10.5072 31.309 10.9347C31.0673 11.3544 30.7209 11.7043 30.3035 11.9501C29.8799 12.201 29.3955 12.3306 28.9032 12.3248H28.9038ZM32.3935 21V7.00125H36.9873V21H32.3935ZM42.8027 14.6513C42.8156 14.6648 42.9141 14.8258 43.0983 15.1343C43.2826 15.4427 43.5224 15.8371 43.8179 16.3173C44.1136 16.7973 44.4257 17.3066 44.754 17.8453C45.0824 18.384 45.3913 18.8934 45.6809 19.3734C45.9694 19.8534 46.298 20.3956 46.6666 21H41.6198C41.3041 20.4874 41.0181 20.024 40.7618 19.61C40.5056 19.1959 40.2331 18.749 39.9444 18.2692C39.6551 17.7899 39.369 17.3233 39.0862 16.8694C38.8034 16.4154 38.5604 16.0179 38.3571 15.6765C38.153 15.335 38.0116 15.105 37.9329 14.9864C37.7379 14.6923 37.6225 14.3527 37.5981 14.0006C37.6176 13.6627 37.7263 13.3361 37.9132 13.0539C37.992 12.9225 38.1366 12.6891 38.3469 12.354C38.5572 12.0188 38.8036 11.6212 39.0862 11.1612C39.3688 10.7011 39.6549 10.2312 39.9444 9.75142C40.234 9.27165 40.5064 8.82142 40.7618 8.4008C41.0186 7.98062 41.3046 7.514 41.6198 7.00093H46.6666L42.7629 13.3694C42.6421 13.5585 42.574 13.7764 42.5657 14.0006C42.5787 14.236 42.6609 14.4624 42.8019 14.6513H42.8027Z" fill="white"/>
<path d="M56.3181 6.99998C56.0026 7.15772 55.7036 7.31218 55.421 7.46335C55.1383 7.61451 54.8623 7.75582 54.5928 7.88726C54.3234 8.01871 54.0506 8.15017 53.7746 8.28162C53.4985 8.41306 53.2159 8.53137 52.9267 8.63653C52.6375 8.74191 52.3286 8.84706 52 8.952L52.4338 10.628C52.8281 10.5097 53.1864 10.3914 53.5087 10.2731C53.8241 10.1577 54.1333 10.0261 54.4351 9.87872C54.7308 9.73412 55.0266 9.57638 55.3224 9.4055L55.3322 9.39958V21H57.3832V7.00064L56.3181 6.99998Z" fill="#8BB5EB"/>
</svg>

<svg xmlns="http://www.w3.org/2000/svg" viewBox="0 0 64 28"><path fill="#0A2343" d="M0 0h64v28H0z"/><path fill="#fff" d="M6.667 21V7.001h4.593V21H6.667ZM17.509 9.23 20.151 21h-5.027L11.97 7.001h2.82a2.655 2.655 0 0 1 1.764.641c.49.404.828.964.955 1.587ZM20.841 21V7.001h4.593V21h-4.593Zm8.063-8.675a2.738 2.738 0 0 1-1.41-.375 2.777 2.777 0 0 1-1.015-1.015 2.735 2.735 0 0 1-.375-1.41 2.686 2.686 0 0 1 .375-1.4 2.812 2.812 0 0 1 3.825-1.005c.415.244.76.59 1.005 1.005.25.424.38.908.375 1.4.004.495-.125.982-.375 1.41a2.8 2.8 0 0 1-1.006 1.015c-.423.251-.908.38-1.4.375ZM32.394 21V7.001h4.593V21h-4.593Zm10.409-6.349c.013.014.111.175.295.483.185.309.424.703.72 1.183a373.133 373.133 0 0 1 1.863 3.056c.288.48.617 1.023.986 1.627H41.62a712.71 712.71 0 0 0-.858-1.39 127.3 127.3 0 0 1-.818-1.34c-.289-.48-.575-.947-.858-1.4a71.117 71.117 0 0 1-.729-1.194 20.869 20.869 0 0 0-.424-.69 2.039 2.039 0 0 1-.335-.985c.02-.338.128-.665.315-.947.079-.132.224-.365.434-.7a209.23 209.23 0 0 0 1.598-2.603c.289-.48.561-.93.817-1.35L41.62 7h5.047l-3.904 6.368c-.12.19-.189.407-.197.632.013.235.095.461.236.65Z"/><path fill="#8BB5EB" d="M56.318 7c-.315.158-.614.312-.897.463-.283.152-.559.293-.828.424-.27.132-.542.263-.818.395-.276.131-.56.25-.848.355-.29.105-.598.21-.927.315l.434 1.676c.394-.118.752-.237 1.075-.355a9.73 9.73 0 0 0 .926-.394c.296-.145.592-.303.887-.473l.01-.006V21h2.051V7h-1.065Z"/></svg>
